svg/chain.svg

<?xml version="1.0" encoding="UTF-8" standalone="no"?>
<!-- Created with Inkscape (http://www.inkscape.org/) -->

<svg
   width="32"
   height="32"
   viewBox="0 0 8.4666666 8.4666668"
   version="1.1"
   id="svg5"
   inkscape:version="1.2 (dc2aeda, 2022-05-15)"
   sodipodi:docname="chain.svg"
   xmlns:inkscape="http://www.inkscape.org/namespaces/inkscape"
   xmlns:sodipodi="http://sodipodi.sourceforge.net/DTD/sodipodi-0.dtd"
   xmlns="http://www.w3.org/2000/svg"
   xmlns:svg="http://www.w3.org/2000/svg"
   xmlns:rdf="http://www.w3.org/1999/02/22-rdf-syntax-ns#"
   xmlns:cc="http://creativecommons.org/ns#">
  <sodipodi:namedview
     id="namedview7"
     pagecolor="#ffffff"
     bordercolor="#111111"
     borderopacity="1"
     inkscape:pageshadow="0"
     inkscape:pageopacity="0"
     inkscape:pagecheckerboard="1"
     inkscape:document-units="mm"
     showgrid="true"
     width="32mm"
     units="px"
     objecttolerance="10000"
     guidetolerance="10000"
     inkscape:snap-perpendicular="true"
     inkscape:snap-tangential="true"
     inkscape:zoom="34.90625"
     inkscape:cx="11.444942"
     inkscape:cy="16.028648"
     inkscape:window-width="2560"
     inkscape:window-height="1301"
     inkscape:window-x="0"
     inkscape:window-y="25"
     inkscape:window-maximized="0"
     inkscape:current-layer="layer1"
     inkscape:showpageshadow="0"
     inkscape:deskcolor="#d1d1d1">
    <inkscape:grid
       type="xygrid"
       id="grid9"
       units="px"
       empspacing="4" />
  </sodipodi:namedview>
  <defs
     id="defs2" />
  <g
     inkscape:label="Layer 1"
     inkscape:groupmode="layer"
     id="layer1">
    <path
       id="path4626"
       style="fill:#666666;stroke:none;stroke-width:0"
       d="M 4.2333333,4.7625 C 3.648832,4.7625 3.175,5.236332 3.175,5.8208333 V 6.35 c 0,0.5845014 0.473832,1.0583333 1.0583333,1.0583333 C 4.8178347,7.4083334 5.2916667,6.9345014 5.2916667,6.35 V 5.8208333 c 0,-0.5845014 -0.473832,-1.0583334 -1.0583334,-1.0583333 z m 0,0.5291667 c 0.2922507,0 0.5291667,0.2369159 0.5291667,0.5291666 V 6.35 c 0,0.2922507 -0.236916,0.5291667 -0.5291667,0.5291666 C 3.9410827,6.8791666 3.7041667,6.6422507 3.7041667,6.35 V 5.8208333 c 0,-0.2922506 0.236916,-0.5291666 0.5291666,-0.5291666 z"
       sodipodi:nodetypes="ssssssssssssss" />
    <path
       id="path4657"
       style="fill:#666666;stroke:none;stroke-width:0"
       d="M 4.2333333,1.0583338 C 3.6488319,1.0583338 3.175,1.5321658 3.175,2.1166672 v 0.5291667 c 0,0.5845013 0.473832,1.0583333 1.0583333,1.0583333 0.5845014,10e-8 1.0583334,-0.4738319 1.0583334,-1.0583333 V 2.1166672 c 0,-0.5845014 -0.473832,-1.0583334 -1.0583334,-1.0583334 z m 0,0.5291668 C 4.525584,1.5875005 4.7625,1.8244165 4.7625,2.1166672 v 0.5291667 c 0,0.2922507 -0.236916,0.5291666 -0.5291667,0.5291666 -0.2922506,0 -0.5291666,-0.236916 -0.5291666,-0.5291666 V 2.1166672 c 0,-0.2922507 0.236916,-0.5291666 0.5291666,-0.5291666 z"
       sodipodi:nodetypes="ssssssssssssss" />
    <rect
       style="fill:#b3b3b3;stroke:none;stroke-width:0"
       id="rect4659"
       width="0.52916664"
       height="1.8520831"
       x="3.96875"
       y="6.6145835" />
    <rect
       style="fill:#b3b3b3;stroke:none;stroke-width:0"
       id="rect4765"
       width="0.52916664"
       height="1.8520833"
       x="3.96875"
       y="0" />
    <rect
       style="fill:#b3b3b3;stroke:none;stroke-width:0"
       id="rect4767"
       width="0.52916664"
       height="2.6458335"
       x="3.96875"
       y="2.9104166" />
  </g>
  <metadata
     id="metadata33">
    <rdf:RDF>
      <cc:Work
         rdf:about="">
        <cc:license
           rdf:resource="http://creativecommons.org/licenses/by-sa/4.0/" />
      </cc:Work>
      <cc:License
         rdf:about="http://creativecommons.org/licenses/by-sa/4.0/">
        <cc:permits
           rdf:resource="http://creativecommons.org/ns#Reproduction" />
        <cc:permits
           rdf:resource="http://creativecommons.org/ns#Distribution" />
        <cc:requires
           rdf:resource="http://creativecommons.org/ns#Notice" />
        <cc:requires
           rdf:resource="http://creativecommons.org/ns#Attribution" />
        <cc:permits
           rdf:resource="http://creativecommons.org/ns#DerivativeWorks" />
        <cc:requires
           rdf:resource="http://creativecommons.org/ns#ShareAlike" />
      </cc:License>
    </rdf:RDF>
  </metadata>
</svg>

<svg width="32" height="32" viewBox="0 0 8.467 8.467" xmlns="http://www.w3.org/2000/svg"><path style="fill:#666;stroke:none;stroke-width:0" d="M4.233 4.763c-.584 0-1.058.473-1.058 1.058v.529a1.058 1.058 0 1 0 2.117 0v-.53c0-.584-.474-1.058-1.059-1.057zm0 .529a.53.53 0 0 1 .53.529v.529a.53.53 0 1 1-1.059 0v-.53a.53.53 0 0 1 .53-.528zM4.233 1.058c-.584 0-1.058.474-1.058 1.059v.529a1.058 1.058 0 0 0 2.117 0v-.53c0-.584-.474-1.058-1.059-1.058zm0 .53a.53.53 0 0 1 .53.529v.529a.53.53 0 0 1-1.059 0v-.53a.53.53 0 0 1 .53-.528z"/><path style="fill:#b3b3b3;stroke:none;stroke-width:0" d="M3.969 6.615h.529v1.852h-.529zM3.969 0h.529v1.852h-.529zM3.969 2.91h.529v2.646h-.529z"/></svg>
